flaticon/monuments/golden-gate-bridge.svg

<svg xmlns="http://www.w3.org/2000/svg" width="32" height="32" viewBox="0 0 24 24">
    <path d="M 24 12 C 24 5.398438 18.601562 0 12 0 C 5.398438 0 0 5.398438 0 12 C 0 13.703125 0.359375 15.328125 1.007812 16.800781 L 1 16.800781 L 1.238281 17.398438 C 1.582031 18.023438 1.964844 18.628906 2.386719 19.199219 L 2.359375 19.199219 L 2.480469 19.328125 C 2.59375 19.480469 2.714844 19.628906 2.832031 19.773438 C 2.863281 19.851562 2.917969 19.910156 2.988281 19.949219 L 3.039062 20 L 3.074219 20 C 3.707031 20.703125 4.421875 21.332031 5.199219 21.871094 L 5.199219 21.878906 L 5.359375 22 C 5.800781 22.28125 6.238281 22.519531 6.679688 22.761719 L 6.761719 22.800781 L 6.785156 22.800781 C 7.644531 23.21875 8.558594 23.535156 9.515625 23.738281 L 9.601562 23.761719 L 9.601562 23.757812 C 10.375 23.917969 11.179688 24 12 24 C 13.402344 24 14.746094 23.757812 16 23.308594 L 16 23.320312 L 16.558594 23.121094 C 17.0625 22.910156 17.546875 22.664062 18.015625 22.390625 L 18.078125 22.359375 C 18.171875 22.304688 18.261719 22.246094 18.355469 22.1875 C 19.367188 21.554688 20.289062 20.773438 21.078125 19.878906 L 21.640625 19.199219 L 21.609375 19.199219 C 22.058594 18.617188 22.441406 18 22.761719 17.359375 L 23.039062 16.800781 L 22.992188 16.800781 C 23.640625 15.328125 24 13.703125 24 12 Z M 12 0.800781 C 18.015625 0.800781 22.960938 5.605469 23.191406 11.5625 C 21.621094 11.289062 20.398438 9.449219 20.398438 7.199219 L 20.398438 6.800781 L 18.398438 6.800781 L 18.398438 8 L 18 8 L 18 6.800781 L 16 6.800781 L 16 7.199219 C 16 10.238281 14.71875 12.800781 13.199219 12.800781 C 12.613281 12.800781 12.054688 12.46875 11.558594 11.890625 C 11.535156 11.835938 11.496094 11.792969 11.449219 11.757812 C 10.355469 10.363281 9.601562 7.730469 9.601562 4.800781 L 9.601562 4 L 7.601562 4 L 7.601562 5.199219 L 6 5.199219 L 6 4 L 4.183594 4 C 6.203125 2.023438 8.964844 0.800781 12 0.800781 Z M 16.800781 16.800781 L 16.800781 7.601562 L 17.199219 7.601562 L 17.199219 8.800781 L 19.199219 8.800781 L 19.199219 7.601562 L 19.601562 7.601562 L 19.601562 16.800781 Z M 19.601562 17.601562 L 19.601562 19.199219 L 18 19.199219 L 18 17.601562 Z M 16 11.257812 L 16 16.800781 L 14.800781 16.800781 L 14.800781 12.949219 C 15.265625 12.546875 15.675781 11.96875 16 11.257812 Z M 14.800781 17.601562 L 14.800781 19.199219 L 13.199219 19.199219 L 13.199219 17.601562 Z M 13.199219 16.800781 L 13.199219 13.601562 C 13.476562 13.601562 13.742188 13.546875 14 13.445312 L 14 16.800781 Z M 10.800781 17.601562 L 12.398438 17.601562 L 12.398438 19.199219 L 10.800781 19.199219 Z M 9.601562 16.800781 L 9.601562 9.925781 C 9.921875 10.839844 10.328125 11.617188 10.800781 12.21875 L 10.800781 16.800781 Z M 11.601562 16.800781 L 11.601562 13.023438 C 11.855469 13.214844 12.121094 13.363281 12.398438 13.460938 L 12.398438 16.800781 Z M 4.800781 16.800781 L 4.800781 4.800781 L 5.199219 4.800781 L 5.199219 6 L 8.398438 6 L 8.398438 4.800781 L 8.800781 4.800781 L 8.800781 16.800781 Z M 7.601562 17.601562 L 7.601562 19.199219 L 6 19.199219 L 6 17.601562 Z M 0.808594 12.371094 C 1.378906 12.285156 1.917969 12.019531 2.398438 11.605469 L 2.398438 16.800781 L 1.886719 16.800781 C 1.242188 15.449219 0.859375 13.949219 0.808594 12.371094 Z M 2.800781 18.363281 C 2.628906 18.113281 2.46875 17.863281 2.320312 17.601562 L 2.800781 17.601562 Z M 0.808594 11.554688 C 0.921875 8.695312 2.121094 6.105469 4 4.183594 L 4 4.800781 C 4 8.21875 2.582031 11.15625 0.808594 11.554688 Z M 3.199219 16.800781 L 3.199219 10.71875 C 3.503906 10.292969 3.773438 9.796875 4 9.242188 L 4 16.800781 Z M 3.601562 17.601562 L 5.199219 17.601562 L 5.199219 19.199219 L 3.601562 19.199219 Z M 7.601562 22 L 6.972656 22 C 6.726562 21.875 6.484375 21.742188 6.25 21.601562 L 6.398438 21.601562 L 6.398438 21.199219 L 7.199219 21.199219 L 7.199219 21.601562 L 7.601562 21.601562 Z M 8.800781 22.71875 C 8.664062 22.679688 8.53125 22.636719 8.398438 22.59375 L 8.398438 20.800781 L 8 20.800781 L 8 20.398438 L 5.601562 20.398438 L 5.601562 20.800781 L 5.199219 20.800781 L 5.199219 20.882812 C 4.84375 20.609375 4.503906 20.3125 4.183594 20 L 8.800781 20 Z M 8.398438 19.199219 L 8.398438 17.601562 L 10 17.601562 L 10 19.199219 Z M 16 22.457031 C 14.757812 22.9375 13.40625 23.199219 12 23.199219 C 11.175781 23.199219 10.375 23.109375 9.601562 22.9375 L 9.601562 20 L 16 20 Z M 16 19.199219 L 15.601562 19.199219 L 15.601562 17.601562 L 17.199219 17.601562 L 17.199219 19.199219 Z M 18.246094 21.28125 C 18.15625 21.335938 18.078125 21.386719 18 21.441406 L 18 21.199219 L 18.367188 21.199219 C 18.328125 21.226562 18.289062 21.253906 18.246094 21.28125 Z M 19.199219 20.5625 L 19.199219 20.398438 L 17.199219 20.398438 L 17.199219 21.910156 C 17.066406 21.980469 16.933594 22.046875 16.800781 22.113281 L 16.800781 20 L 19.816406 20 C 19.617188 20.195312 19.414062 20.382812 19.199219 20.5625 Z M 20.5625 19.199219 L 20.398438 19.199219 L 20.398438 17.601562 L 21.6875 17.601562 C 21.359375 18.167969 20.980469 18.703125 20.5625 19.199219 Z M 22.113281 16.800781 L 20.398438 16.800781 L 20.398438 10.320312 C 21.054688 11.449219 22.054688 12.222656 23.191406 12.375 C 23.140625 13.953125 22.757812 15.449219 22.113281 16.800781 Z M 22.113281 16.800781"/>
    <path d="M8 6.800781L5.601562 6.800781 5.601562 7.199219 5.199219 7.199219 5.199219 9.199219 8.398438 9.199219 8.398438 7.199219 8 7.199219zM7.601562 8.398438L6 8.398438 6 8 6.398438 8 6.398438 7.601562 7.199219 7.601562 7.199219 8 7.601562 8zM8 10.398438L5.601562 10.398438 5.601562 10.800781 5.199219 10.800781 5.199219 12.800781 8.398438 12.800781 8.398438 10.800781 8 10.800781zM7.601562 12L6 12 6 11.601562 6.398438 11.601562 6.398438 11.199219 7.199219 11.199219 7.199219 11.601562 7.601562 11.601562zM8 14L5.601562 14 5.601562 14.398438 5.199219 14.398438 5.199219 16.398438 8.398438 16.398438 8.398438 14.398438 8 14.398438zM7.601562 15.601562L6 15.601562 6 15.199219 6.398438 15.199219 6.398438 14.800781 7.199219 14.800781 7.199219 15.199219 7.601562 15.199219zM17.199219 11.199219L19.199219 11.199219 19.199219 9.199219 17.199219 9.199219zM18 10L18.398438 10 18.398438 10.398438 18 10.398438zM17.199219 13.601562L19.199219 13.601562 19.199219 11.601562 17.199219 11.601562zM18 12.398438L18.398438 12.398438 18.398438 12.800781 18 12.800781zM17.199219 16L19.199219 16 19.199219 14 17.199219 14zM18 14.800781L18.398438 14.800781 18.398438 15.199219 18 15.199219zM18 14.800781"/>
</svg>

<svg xmlns="http://www.w3.org/2000/svg" width="32" height="32" viewBox="0 0 24 24">
    <path d="M24 12c0-6.602-5.398-12-12-12S0 5.398 0 12c0 1.703.36 3.328 1.008 4.8H1l.238.598c.344.625.727 1.23 1.149 1.801h-.028l.121.13c.114.151.235.3.352.444a.345.345 0 0 0 .156.176L3.04 20h.035A12.263 12.263 0 0 0 5.2 21.871v.008l.16.121c.442.281.88.52 1.32.762l.083.039h.023c.86.418 1.774.734 2.73.937l.087.024v-.004c.773.16 1.578.242 2.398.242 1.402 0 2.746-.242 4-.691v.011l.559-.199c.503-.21.988-.457 1.457-.73l.062-.032c.094-.054.184-.113.277-.172a12.426 12.426 0 0 0 2.723-2.308l.563-.68h-.032c.45-.582.832-1.199 1.153-1.84l.277-.558h-.047A11.887 11.887 0 0 0 24 12zM12 .8c6.016 0 10.96 4.805 11.191 10.762-1.57-.273-2.793-2.113-2.793-4.363v-.398h-2V8H18V6.8h-2v.4c0 3.038-1.281 5.6-2.8 5.6-.587 0-1.145-.331-1.641-.91a.33.33 0 0 0-.11-.132C10.355 10.363 9.602 7.73 9.602 4.8V4h-2v1.2H6V4H4.184A11.152 11.152 0 0 1 12 .8zm4.8 16V7.603h.4V8.8h2V7.6h.402v9.2zm2.802.802v1.597H18v-1.597zM16 11.258V16.8h-1.2v-3.852c.466-.402.876-.98 1.2-1.691zm-1.2 6.344v1.597h-1.6v-1.597zm-1.6-.801v-3.2c.277 0 .542-.054.8-.156v3.356zm-2.4.8h1.598V19.2h-1.597zm-1.198-.8V9.926c.32.914.726 1.691 1.199 2.293V16.8zm2 0v-3.778c.253.192.52.34.796.438v3.34zm-6.801 0v-12h.398V6h3.2V4.8H8.8v12zm2.8.8V19.2H6v-1.597zM.81 12.372c.57-.086 1.109-.351 1.59-.766v5.196h-.512a11.105 11.105 0 0 1-1.078-4.43zM2.8 18.363c-.172-.25-.332-.5-.48-.761h.48zM.809 11.555A11.163 11.163 0 0 1 4 4.184V4.8c0 3.418-1.418 6.355-3.191 6.754zm2.39 5.246v-6.082c.305-.426.574-.922.801-1.477v7.559zm.403.8h1.597V19.2H3.602zm4 4.399h-.63a11.74 11.74 0 0 1-.722-.398h.148v-.403H7.2v.403h.403zm1.199.719c-.137-.04-.27-.082-.403-.125V20.8H8v-.403H5.602v.403h-.403v.082c-.355-.274-.695-.57-1.015-.883H8.8zm-.403-3.52v-1.597H10v1.597zM16 22.457c-1.242.48-2.594.742-4 .742-.824 0-1.625-.09-2.398-.262V20H16zm0-3.258h-.398v-1.597h1.597v1.597zm2.246 2.082c-.09.055-.168.106-.246.16V21.2h.367c-.039.028-.078.055-.12.082zm.953-.718v-.165h-2v1.512c-.133.07-.265.137-.398.203V20h3.015c-.199.195-.402.383-.617.563zm1.363-1.364h-.164v-1.597h1.29a11.191 11.191 0 0 1-1.125 1.597zm1.551-2.398h-1.715v-6.48c.657 1.128 1.657 1.902 2.793 2.054a11.086 11.086 0 0 1-1.078 4.426zm0 0"/>
    <path d="M8 6.8H5.602v.4h-.403v2h3.2v-2H8zm-.398 1.598H6V8h.398v-.398H7.2V8h.403zm0 0M8 10.398H5.602v.403h-.403v2h3.2v-2H8zM7.602 12H6v-.398h.398v-.403H7.2v.403h.403zm0 0M8 14H5.602v.398h-.403v2h3.2v-2H8zm-.398 1.602H6v-.403h.398v-.398H7.2v.398h.403zm0 0M17.2 11.2h2v-2h-2zM18 10h.398v.398H18zm0 0M17.2 13.602h2v-2h-2zm.8-1.204h.398v.403H18zm0 0M17.2 16h2v-2h-2zm.8-1.2h.398v.4H18zm0 0"/>
</svg>
